src/assets/images/gradient-arrow-narrow-right.svg

<svg fill="none" height="12" viewBox="0 0 18 12" width="18" xmlns="http://www.w3.org/2000/svg" xmlns:xlink="http://www.w3.org/1999/xlink"><linearGradient id="a" gradientUnits="userSpaceOnUse" x1=".689863" x2="17.8866" y1="6.00663" y2="7.67052"><stop offset=".15" stop-color="#2aabee"/><stop offset="1" stop-color="#0ccfcf"/></linearGradient><path clip-rule="evenodd" d="m14.2947 5.26371-2.4795-2.47449v-.01081c-.433-.4322-.433-1.11293 0-1.53433.4223-.43221 1.1044-.43221 1.5375 0l4.3307 4.32207c.2552.24814.3562.59887.3029.93058-.0414.2892-.1986.54245-.4229.71101l-4.2223 4.21376c-.2057.1945-.4872.3134-.7687.3134l.0108.0119c-.2923 0-.5738-.1189-.7687-.3134-.4331-.4214-.4331-1.1129-.0108-1.53433v-.0108l2.4684-2.46352h-12.51533c-.60631 0-1.082698-.48623-1.082698-1.08052 0-.60509.476388-1.08052 1.082698-1.08052z" fill="url(#a)" fill-rule="evenodd"/></svg>

<svg width="18" height="12" viewBox="0 0 18 12" fill="none" xmlns="http://www.w3.org/2000/svg">
<path fill-rule="evenodd" clip-rule="evenodd" d="M14.2947 5.26371L11.8152 2.78922V2.77841C11.3822 2.34621 11.3822 1.66548 11.8152 1.24408C12.2375 0.81187 12.9196 0.81187 13.3527 1.24408L17.6834 5.56615C17.9386 5.81429 18.0396 6.16502 17.9863 6.49673C17.9449 6.78593 17.7877 7.03918 17.5634 7.20774L13.3411 11.4215C13.1354 11.616 12.8539 11.7349 12.5724 11.7349L12.5832 11.7468C12.2909 11.7468 12.0094 11.6279 11.8145 11.4334C11.3814 11.012 11.3814 10.3205 11.8037 9.89907V9.88827L14.2721 7.42475H1.75677C1.15046 7.42475 0.674072 6.93852 0.674072 6.34423C0.674072 5.73914 1.15046 5.26371 1.75677 5.26371H14.2947Z" fill="url(#paint0_linear_510_1121)"/>
<defs>
<linearGradient id="paint0_linear_510_1121" x1="0.689863" y1="6.00663" x2="17.8866" y2="7.67052" gradientUnits="userSpaceOnUse">
<stop offset="0.15" stop-color="#2AABEE"/>
<stop offset="1" stop-color="#0CCFCF"/>
</linearGradient>
</defs>
</svg>
